X: 27734
T: Morning Mist, The
R: reel
M: 4/4
K: Gmajor
d2BG dG (3BAG|dGBG DGBd|c/e/cA=F cF~F2|c=FAF CFAc|
(3ded BG dG (3BAG|DGBG dGBd|ceAB cedc|1 (3)Bcd AF G2Bc:|2 BdAF G2Bd||
|:~g2dg Bgdc|BG~G2 DGBd|agea abag|fdad bdad|
[1 ~g2dg Bgdc|BGGF GBdB|(3cec AB cedc|(3Bcd AF G2Bd:|
[2 ~g2dg Bgdc|BG~G2 DGBd|(3cec AB cedc|BdAF G2Bc||

